X: 1
T: The Road To Monalea
R: reel
M: 4/4
L: 1/8
K: Ddor
   dcAc d2ed | dcAG EDD2 | cAGA c2ed          | cAGE EDD2  |
   dcAc d2ed | dcAG EAD2 | ((3E^FG) AB cded     | cAGE EDD2 :|
|: dcAc d2cd | eaag egd2 | gede        c3d      | eaag egd2  |
   dcAc d2cd | eaag egd2 | cAGA        ((3Acd) ed | cAGE EDD2 :|
